X: 19385
T: Jackdaw, The
R: waltz
M: 3/4
K: Dmajor
|F2- FF ED|BD BA DA|E2- EF/E/ DE|F2- FA F/E/D|
B,D- D2 F/E/D|D2- D2 ED|D2- D2- D2-|D2- D2- D2|
F2- FF ED|BD BA DA|c2- c2 dc|d2- dA F/E/D|
B,D- D2 F/E/D|D2- D2 ED|D2- D2- D2-|D2- D2- D2||
FG Ad ce|ef A2- A2|E=F A=c BA|dD =cB AG|
FG Ad ce|ef A2- A2|=c2 B2 A2|G2 F2 E2|
FG Ad ce|ef A2- A2|E=F A=c BA|dD =cD BD|
FG Ad ce|ef A2- A2|=c2- c2 dc|B2 A2 G2||

